X: 4290
M: C|
L: 1/8
K: G
(Bc) |\
d2(ed) dBGA | BGEG D3B |\
[1 c2(cd) edcB | A2A2A2 :|\
[2 BdBG EcAF | G2G2G2 |:\
(AB) |\
cBcd c2(Bc) |
dBBG A2(Bc) |\
d2BG (ed)cB | A2A2 A2(Bc) |\
dBec dBGA | BGEG D2(GA) |\


